logo/dark.svg

<?xml version="1.0" encoding="UTF-8"?>
<svg width="70px" height="24px" viewBox="0 0 70 24" version="1.1" xmlns="http://www.w3.org/2000/svg" xmlns:xlink="http://www.w3.org/1999/xlink">
    <!-- Generator: Sketch 53.2 (72643) - https://sketchapp.com -->
    <title>dark</title>
    <desc>Created with Sketch.</desc>
    <g id="Page-1" stroke="none" stroke-width="1" fill="none" fill-rule="evenodd">
        <g id="dark" fill-rule="nonzero">
            <rect id="Rectangle" fill="#735FFA" x="0" y="0" width="24" height="24" rx="5.785"></rect>
            <path d="M16.482,10.352 L13.302,12.202 L11.442,13.249 L15.694,15.73 L16.482,15.267 L16.482,10.352 Z M10.245,14.626 L8.332,15.754 L12.119,17.963 L13.937,16.781 L10.245,14.626 Z M11.881,6.442 L10.063,7.624 L13.755,9.779 L15.668,8.651 L11.881,6.441 L11.881,6.442 Z M12.559,11.156 L8.306,8.675 L7.518,9.137 L7.518,14.053 L10.698,12.203 L12.558,11.156 L12.559,11.156 Z M18.159,16.342 L12.087,19.917 C12.0508562,19.9381085 12.0061438,19.9381085 11.97,19.917 L5.84,16.342 C5.80463566,16.3211089 5.78295573,16.283074 5.783,16.242 L5.783,8.162 C5.783,8.122 5.805,8.084 5.84,8.062 L11.913,4.487 C11.9491438,4.46589148 11.9938562,4.46589148 12.03,4.487 L18.16,8.063 C18.195,8.083 18.217,8.122 18.217,8.163 L18.217,16.243 C18.2166922,16.2837168 18.1950585,16.3212911 18.16,16.342 L18.159,16.342 Z M34.294,17.014 L34.294,13.196 C34.294,12.709 34.42,12.331 34.67,12.062 C34.921,11.792 35.258,11.658 35.682,11.658 C36.105,11.658 36.442,11.792 36.693,12.062 C36.943,12.332 37.069,12.709 37.069,13.196 L37.069,17.014 C37.0687334,17.0486511 37.0823121,17.0819746 37.1067208,17.106571 C37.1311294,17.1311674 37.1643479,17.145001 37.199,17.145 L39.143,17.145 C39.1774781,17.145 39.2105442,17.1313036 39.2349239,17.1069239 C39.2593036,17.0825442 39.273,17.0494781 39.273,17.015 L39.273,12.895 C39.273,11.931 39.023,11.173 38.521,10.621 C38.02,10.07 37.354,9.794 36.524,9.794 C36.04,9.794 35.604,9.889 35.215,10.08 C34.8474434,10.2536303 34.5306527,10.5187703 34.295,10.85 L34.295,7.63 C34.295,7.55820298 34.236797,7.5 34.165,7.5 L32.208,7.5 C32.1735219,7.5 32.1404558,7.51369639 32.1160761,7.53807612 C32.0916964,7.56245585 32.078,7.59552186 32.078,7.63 L32.078,17.014 C32.0777334,17.0486511 32.0913121,17.0819746 32.1157208,17.106571 C32.1401294,17.1311674 32.1733479,17.145001 32.208,17.145 L34.164,17.145 C34.235797,17.145 34.294,17.086797 34.294,17.015 L34.294,17.014 Z M43.552,17.224 C44.018,17.224 44.444,17.126 44.828,16.93 C45.213,16.735 45.518,16.476 45.743,16.155 L45.743,17.015 C45.743,17.086797 45.801203,17.145 45.873,17.145 L47.829,17.145 C47.900797,17.145 47.959,17.086797 47.959,17.015 L47.959,10.003 C47.9592666,9.96834892 47.9456879,9.93502543 47.9212792,9.91042899 C47.8968706,9.88583255 47.8636521,9.87199897 47.829,9.872 L45.873,9.872 C45.8385219,9.872 45.8054558,9.88569639 45.7810761,9.91007612 C45.7566964,9.93445585 45.743,9.96752186 45.743,10.002 L45.743,13.822 C45.743,14.308 45.617,14.686 45.367,14.955 C45.116,15.225 44.774,15.359 44.342,15.359 C43.919,15.359 43.582,15.225 43.331,14.955 C43.081,14.686 42.955,14.308 42.955,13.821 L42.955,10.003 C42.9552666,9.96834892 42.9416879,9.93502543 42.9172792,9.91042899 C42.8928706,9.88583255 42.8596521,9.87199897 42.825,9.872 L40.88,9.872 C40.808203,9.872 40.75,9.93020298 40.75,10.002 L40.75,14.122 C40.75,14.756 40.867,15.307 41.1,15.777 C41.333,16.246 41.662,16.604 42.085,16.852 C42.509,17.1 42.997,17.223 43.551,17.223 L43.552,17.224 Z M54.002,17.25 C54.598,17.25 55.138,17.095 55.622,16.787 C56.106,16.478 56.488,16.039 56.769,15.47 C57.05,14.901 57.191,14.243 57.191,13.496 C57.191,12.748 57.051,12.092 56.769,11.527 C56.489,10.962 56.106,10.527 55.622,10.224 C55.1369361,9.91971618 54.5745665,9.76141956 54.002,9.768 C53.5,9.768 53.055,9.872 52.666,10.08 C52.276,10.289 51.979,10.563 51.771,10.902 L51.771,7.63 C51.7712666,7.59534892 51.7576879,7.56202543 51.7332792,7.53742899 C51.7088706,7.51283255 51.6756521,7.49899897 51.641,7.499 L49.685,7.499 C49.613203,7.499 49.555,7.55720298 49.555,7.629 L49.555,17.013 C49.5547334,17.0476511 49.5683121,17.0809746 49.5927208,17.105571 C49.6171294,17.1301674 49.6503479,17.144001 49.685,17.144 L51.641,17.144 C51.712797,17.144 51.771,17.085797 51.771,17.014 L51.771,16.128 C51.987,16.466 52.286,16.738 52.666,16.942 C53.046,17.146 53.491,17.249 54.001,17.249 L54.002,17.25 Z M53.34,15.307 C52.9146605,15.3137216 52.5067293,15.1383221 52.219,14.825 C51.912,14.504 51.759,14.065 51.759,13.509 C51.759,12.952 51.912,12.514 52.219,12.192 C52.5067293,11.8786779 52.9146605,11.7032784 53.34,11.71 C53.79,11.71 54.168,11.868 54.475,12.186 C54.781,12.503 54.935,12.939 54.935,13.496 C54.935,14.052 54.779,14.493 54.468,14.819 C54.1787301,15.13499 53.7683646,15.312524 53.34,15.307 L53.34,15.307 Z M63.57,17.014 L63.57,15.438 C63.570001,15.4033479 63.5561674,15.3701294 63.531571,15.3457208 C63.5069746,15.3213121 63.4736511,15.3077334 63.439,15.308 L60.432,15.308 L63.505,11.645 L63.505,9.872 L58.112,9.872 C58.0775219,9.872 58.0444558,9.88569639 58.0200761,9.91007612 C57.9956964,9.93445585 57.982,9.96752186 57.982,10.002 L57.982,11.579 C57.982,11.650797 58.040203,11.709 58.112,11.709 L60.964,11.709 L57.955,15.373 L57.955,17.145 L63.439,17.145 C63.4734781,17.145 63.5065442,17.1313036 63.5309239,17.1069239 C63.5553036,17.0825442 63.569,17.0494781 63.569,17.015 L63.57,17.014 Z M70,17.014 L70,15.438 C70,15.4035219 69.9863036,15.3704558 69.9619239,15.3460761 C69.9375442,15.3216964 69.9044781,15.308 69.87,15.308 L66.863,15.308 L69.935,11.645 L69.935,9.872 L64.543,9.872 C64.5085219,9.872 64.4754558,9.88569639 64.4510761,9.91007612 C64.4266964,9.93445585 64.413,9.96752186 64.413,10.002 L64.413,11.579 C64.413,11.650797 64.471203,11.709 64.543,11.709 L67.394,11.709 L64.386,15.373 L64.386,17.145 L69.87,17.145 C69.941797,17.145 70,17.086797 70,17.015 L70,17.014 Z" id="Shape" fill="#FFFFFF"></path>
        </g>
    </g>
</svg>

<svg width="70" height="24" xmlns="http://www.w3.org/2000/svg"><g fill="none" fill-rule="evenodd"><rect fill="#925FF0" width="24" height="24" rx="5.785"/><path d="m16.482 10.352-3.18 1.85-1.86 1.047 4.252 2.481.788-.463v-4.915Zm-6.237 4.274-1.913 1.128 3.787 2.209 1.818-1.182-3.692-2.155Zm1.636-8.184-1.818 1.182 3.692 2.155 1.913-1.128-3.787-2.21Zm.678 4.714L8.306 8.675l-.788.462v4.916l3.18-1.85 1.86-1.047Zm5.6 5.186-6.072 3.575a.116.116 0 0 1-.117 0l-6.13-3.575a.116.116 0 0 1-.057-.1v-8.08c0-.04.022-.078.057-.1l6.073-3.575a.116.116 0 0 1 .117 0l6.13 3.576c.035.02.057.059.057.1v8.08a.116.116 0 0 1-.057.099ZM34.294 17.014v-3.818c0-.487.126-.865.376-1.134.251-.27.588-.404 1.012-.404.423 0 .76.134 1.011.404.25.27.376.647.376 1.134v3.818a.13.13 0 0 0 .13.131h1.944a.13.13 0 0 0 .13-.13v-4.12c0-.964-.25-1.722-.752-2.274-.501-.551-1.167-.827-1.997-.827-.484 0-.92.095-1.309.286a2.373 2.373 0 0 0-.92.77V7.63a.13.13 0 0 0-.13-.13h-1.957a.13.13 0 0 0-.13.13v9.384a.13.13 0 0 0 .13.131h1.956a.13.13 0 0 0 .13-.13Zm9.258.21c.466 0 .892-.098 1.276-.294.385-.195.69-.454.915-.775v.86a.13.13 0 0 0 .13.13h1.956a.13.13 0 0 0 .13-.13v-7.012a.13.13 0 0 0-.13-.131h-1.956a.13.13 0 0 0-.13.13v3.82c0 .486-.126.864-.376 1.133-.251.27-.593.404-1.025.404-.423 0-.76-.134-1.011-.404-.25-.269-.376-.647-.376-1.134v-3.818a.13.13 0 0 0-.13-.131H40.88a.13.13 0 0 0-.13.13v4.12c0 .634.117 1.185.35 1.655.233.469.562.827.985 1.075.424.248.912.371 1.466.371Zm10.45.026c.596 0 1.136-.155 1.62-.463.484-.309.866-.748 1.147-1.317s.422-1.227.422-1.974c0-.748-.14-1.404-.422-1.969-.28-.565-.663-1-1.147-1.303a2.984 2.984 0 0 0-1.62-.456c-.502 0-.947.104-1.336.312-.39.209-.687.483-.895.822V7.63a.13.13 0 0 0-.13-.131h-1.956a.13.13 0 0 0-.13.13v9.384a.13.13 0 0 0 .13.131h1.956a.13.13 0 0 0 .13-.13v-.886c.216.338.515.61.895.814.38.204.825.307 1.335.307Zm-.662-1.943a1.49 1.49 0 0 1-1.121-.482c-.307-.321-.46-.76-.46-1.316 0-.557.153-.995.46-1.317a1.49 1.49 0 0 1 1.121-.482c.45 0 .828.158 1.135.476.306.317.46.753.46 1.31 0 .556-.156.997-.467 1.323a1.503 1.503 0 0 1-1.128.488Zm10.23 1.707v-1.576a.13.13 0 0 0-.131-.13h-3.007l3.073-3.663V9.872h-5.393a.13.13 0 0 0-.13.13v1.577a.13.13 0 0 0 .13.13h2.852l-3.009 3.664v1.772h5.484a.13.13 0 0 0 .13-.13Zm6.43 0v-1.576a.13.13 0 0 0-.13-.13h-3.007l3.072-3.663V9.872h-5.392a.13.13 0 0 0-.13.13v1.577a.13.13 0 0 0 .13.13h2.851l-3.008 3.664v1.772h5.484a.13.13 0 0 0 .13-.13Z" fill="#FFF" fill-rule="nonzero"/></g></svg>
